X:189
T:I lost my Love
R:Jig
S:Buddy Macmaster
M:6/8
L:1/8
K:Am
|E| "Am" ABA  AGE | "Am"c3 c2 d|"C"efe edB|"Em"g3 e2 a|!
"C"gec cge|"G"dBG GAB|"Am"c2 A "Em"BGE|"Am" A3 A2 |!
g|"Am"aba age|"Em"gag geg|"Am"aba age|"Em"g3 e2 a|!
"C"gec cge|"G"dBG Ged|"Am"c2 A "Em"BGE|"Am" A3 A2 :||
